X: 1673
T: Polska ur E L Lindblads notbok
B: [[http://www.smus.se/earkiv/fmk/browselarge.php?lang=sw&katalogid=M+177&bildnr=00098|SMUS - katalog M177 bild 98]] (no 5)
B: E L Lindblads notbok
S: efter [[Personer/E L Lindblad]]
R: Polska
Z: Nils L
M: 3/4
L: 1/16
K: Em
efga b2g2 f2e2 | ^d2f2 B2d2 e4 | e^def gfga b2g2 | bagf a4 g4 ::
g2gb g2gb b2a2 | f2fa f2fa a2g2| e^def gfga b2a2 | gfe^d d4 e4 |
(:musicend:)
(:music:)
